X: 205
%
U:~=!turn!
T: Glen Lyons Rant*
C: O:Scotland
B:Keith Norman MacDonald : "The Skye collection of the best reels & strathspeys extant" : 1887
Z:Ralph Palmer
R:Reel
M:C
L:1/8
K:G
d | BG-GD B,G,GB, | CA,AG FDAc | BG-GD B,G,DB, | CEDF GG,G,d | (B/A/G/F/) GD B,G,DB, |
CEAG FDAc | (B/c/)d GB EGCE | FDcA BGG || d | (g/f/g/a/) gd BGdB | c<eTa>g (fddf) |
(g/f/g/a/) gd edcB | cATdc B(GGd) | (g/f/g/a/) gd BGdB | c<ATa>g fd-df | gbab gdeB | cAdc BGG |]


